X:1
T:Jock Stewart
M:3/4
L:1/4
K:F
 F/2G/2| A c A| G3-| G z F/2G/2| A f e| d3-| d z| d/2e/2| f c A| G3/2 F/2 G|\
 A3-| A z F/2G/2| A c A| G2 F/2G/2| A f e| d2 d/2e/2| f c A| G3/2 F/2 G|\
 F3-| F z||
